src/assets/images/homepage/home/partner_logo_13.svg

<svg fill="none" height="89" viewBox="0 0 89 89" width="89" xmlns="http://www.w3.org/2000/svg" xmlns:xlink="http://www.w3.org/1999/xlink"><clipPath id="a"><path d="m21.6582 20h46v50h-46z"/></clipPath><circle cx="44.2225" cy="44.2225" fill="#040818" r="44.2225"/><g clip-path="url(#a)"><path d="m45.7503 60.5414c4.003-.3189 7.102-2.2778 9.7765-5.103 1.6436-1.7348 3.9395-2.0666 5.8698-1.0301 2.657 1.4266 3.4099 4.8164 1.4204 7.077-5.4934 6.2387-12.4159 9.1673-20.8333 8.3893-1.4007-.1293-2.7817-.4676-4.2327-.8145.2123-.4353.4618-.7888.7638-1.0905 2.158-2.1399 4.3312-4.2604 6.4826-6.4046.2977-.2974.5056-.681.7529-1.0236z" fill="#59cdfe"/><path d="m21.6733 40.4748c.2714-1.0495.3218-2.224.8514-3.1248 2.8605-4.8638 5.8304-9.6672 8.7872-14.4771 2.3659-3.8467 7.1962-3.8359 9.5248.0732-.4552.2543-.9126.3534-1.2037.625-2.4272 2.2735-4.839 4.5621-7.2224 6.8787-3.1122 3.0277-6.1806 6.0964-9.295 9.1199-.3961.3857-.9586.6077-1.4423.9029z" fill="#02ebe8"/><path d="m21.6584 40.5629c.499-.3858 1.0615-.6077 1.4576-.9913 3.1144-3.0235 6.185-6.0922 9.295-9.1199 2.3834-2.3188 4.7953-4.6052 7.2224-6.8787.2889-.2716.7463-.3707 1.2081-.5496.8339 1.2693.8514 2.6054.3086 4.0406-.4749.2543-.8667.3901-1.1359.6487-4.3137 4.1505-8.6099 8.3204-12.9127 12.4795-1.2979 1.2542-2.6088 2.4912-3.9132 3.7368-1.0221-.862-1.4314-2.002-1.5321-3.3661z" fill="#0be9ec"/><path d="m43.9817 45.4826c-1.6108-.0258-2.7948-.8103-3.6921-2.1377 3.2522-3.1743 6.4695-6.2301 9.6648-9.3096 2.2368-2.1571 4.4166-4.3746 6.6774-6.5059.7069-.6659 1.5933-1.1464 2.3987-1.711-.2451.7714-.3567 1.6184-.7594 2.2993-1.8078 3.0558-3.6966 6.0642-5.7035 9.1221-.4881.2866-.8601.5129-1.1687.8016-1.8625 1.7434-3.7294 3.4803-5.5503 5.2625-.6828.6681-1.2497 1.4482-1.8691 2.1787z" fill="#2eddf4"/><path d="m59.0547 25.73c-.8273.6551-1.7159 1.1335-2.4228 1.7994-2.2608 2.1335-4.4407 4.3488-6.6774 6.5059-3.1954 3.0795-6.4126 6.1353-9.6912 9.2385-.4136-.9935-.7572-2.0214-1.0089-3.1571.429-.3728.7901-.6185 1.0987-.9116 1.0242-.9697 2.0288-1.9588 3.0465-2.9351 2.994-2.8725 5.9814-5.7516 8.9886-8.6113 1.8778-1.7865 3.7819-3.5428 5.675-5.312.3393 1.0969.6763 2.1959.9915 3.3833z" fill="#28dff3"/><path d="m58.0395 22.2778c-1.8691 1.8404-3.7754 3.5967-5.651 5.3832-3.0071 2.8596-5.9946 5.7387-8.9886 8.6113-1.0177.9762-2.0201 1.9675-3.0465 2.9351-.3108.2931-.6697.5387-1.079.821.1642-.8275.2495-1.7541.6653-2.5019 1.1447-2.0537 2.4294-4.0341 3.7973-6.0921.5887-.3319 1.1052-.5474 1.4795-.9073 2.0222-1.9438 4.0182-3.9135 6.0011-5.896 1.4182-1.418 2.8014-2.8705 4.1999-4.3079.8667.6271 1.7334 1.2564 2.622 1.9546z" fill="#20e1f0"/><path d="m45.6495 60.5289c-.1467.3578-.3546.7413-.6522 1.0387-2.1514 2.1442-4.3269 4.2669-6.4827 6.4046-.3042.3017-.5515.6552-.8426 1.056-1.729-.6206-3.4427-1.3102-5.2067-2.127.3896-.6745.7814-1.2714 1.2847-1.7606 1.543-1.502 3.1429-2.9502 4.6858-4.4501.2605-.2521.359-.6637.5319-1.002 2.1404.6939 4.3356.9503 6.6839.8404z" fill="#4ed1fc"/><path d="m23.2188 43.9978c1.2759-1.3124 2.5869-2.5515 3.8847-3.8057 4.305-4.1592 8.6012-8.3291 12.9128-12.4796.2692-.2586.6609-.3943 1.0768-.5904-.3371.7801-.7179 1.5839-1.1753 2.3446-1.2388 2.058-2.5104 4.0966-3.8914 6.2107-.8995.7197-1.7093 1.3404-2.449 2.0343-2.2805 2.142-4.5479 4.2992-6.7869 6.4822-.3348.3254-.4968.8232-.7375 1.2412-.9345-.4568-1.8691-.9115-2.8342-1.4373z" fill="#12e6ed"/><path d="m38.8998 59.6498c-.1073.3772-.2057.7888-.4662 1.0409-1.5451 1.502-3.1428 2.948-4.6858 4.45-.5012.4871-.8929 1.084-1.3416 1.7068-1.3832-.9051-2.762-1.8813-4.143-2.989 1.1337-1.2563 2.2674-2.3855 3.4033-3.5126 1.0571-1.0516 2.1163-2.1011 3.1756-3.1506 1.3307.8038 2.6592 1.6098 4.0577 2.4524z" fill="#42d5f8"/><path d="m34.8031 57.139c-1.0177 1.1076-2.077 2.1571-3.1341 3.2066-1.1359 1.127-2.2696 2.2563-3.4427 3.4566-.9651-.8534-1.8931-1.7779-2.7707-2.8123.3677-.4008.6916-.6853 1.0023-.9827 1.8604-1.7778 3.7163-3.56 5.5744-5.3422.9105.806 1.8209 1.6098 2.773 2.4718z" fill="#38d9f6"/><path d="m64.3861 35.4297c.8667.7499 1.7312 1.4999 2.5738 2.3877-.7048.8361-1.3701 1.5494-2.0683 2.2283-1.7049 1.6615-3.4229 3.3079-5.1366 4.9607-.8054-.7973-1.613-1.5968-2.3746-2.5256 1.7837-1.8102 3.5302-3.4825 5.257-5.1741.6106-.5991 1.1687-1.2499 1.7509-1.877z" fill="#4cd2fb"/><path d="m55.3471 20.2818c-1.3285 1.4784-2.7117 2.9308-4.1299 4.3488-1.9829 1.9826-3.9811 3.9501-6.0011 5.896-.3743.3599-.8886.5776-1.4182.8663 1.7749-3.0536 3.5258-6.1805 5.5196-9.15 1.3788-2.0537 3.5302-2.6119 6.0318-1.9611z" fill="#19e2ed"/><path d="m59.8054 45.0669c1.6612-1.7132 3.3814-3.3596 5.0841-5.0211.6982-.681 1.3635-1.3921 2.0814-2.1571 1.1468 2.3317.8426 4.519-.8207 6.1826-1.4511 1.4525-4.0249 2.1938-6.347.9935z" fill="#54cefc"/><path d="m64.325 35.3801c-.5209.6766-1.079 1.3275-1.6896 1.9265-1.7268 1.6917-3.4733 3.364-5.2614 5.0987-.9499-1.8662-.6325-4.1548.8404-5.6784 1.6896-1.7455 3.7294-2.198 6.1106-1.3468z" fill="#42d5f8"/><path d="m31.984 54.6051c-1.8122 1.8446-3.6681 3.6268-5.5284 5.4047-.3108.2974-.6347.5818-1.0177.9094-1.2059-1.8016-.9695-4.1225.5165-5.6849 1.5167-1.5947 3.8454-1.8662 6.0318-.6292z" fill="#2eddf4"/><path d="m26.1294 45.4737c.1641-.459.3261-.9568.661-1.2822 2.2389-2.183 4.5063-4.3401 6.7868-6.4822.7397-.6939 1.5495-1.3145 2.4031-1.9739-1.427 2.4717-2.8715 4.9823-4.4494 7.411-1.2191 1.8769-3.0619 2.642-5.4015 2.3252z" fill="#19e2ed"/><path d="m44.0564 45.5257c.5449-.7715 1.1118-1.5516 1.7946-2.2196 1.8231-1.7822 3.69-3.5191 5.5503-5.2625.3086-.2888.6785-.5129 1.0965-.778-1.2168 2.1485-2.4031 4.3811-3.8432 6.4413-1.0286 1.474-2.7094 1.9632-4.6004 1.8166z" fill="#38d9f6"/></g></svg>

<svg width="89" height="89" viewBox="0 0 89 89" fill="none" xmlns="http://www.w3.org/2000/svg">
<circle cx="44.2225" cy="44.2225" r="44.2225" fill="#040818"/>
<g clip-path="url(#clip0_5626_12369)">
<path d="M45.7503 60.5414C49.7533 60.2225 52.8523 58.2636 55.5268 55.4384C57.1704 53.7036 59.4663 53.3718 61.3966 54.4083C64.0536 55.8349 64.8065 59.2247 62.817 61.4853C57.3236 67.724 50.4011 70.6526 41.9837 69.8746C40.583 69.7453 39.202 69.407 37.751 69.0601C37.9633 68.6248 38.2128 68.2713 38.5148 67.9696C40.6728 65.8297 42.846 63.7092 44.9974 61.565C45.2951 61.2676 45.503 60.884 45.7503 60.5414Z" fill="#59CDFE"/>
<path d="M21.6733 40.4748C21.9447 39.4253 21.9951 38.2508 22.5247 37.35C25.3852 32.4862 28.3551 27.6828 31.3119 22.8729C33.6778 19.0262 38.5081 19.037 40.8367 22.9461C40.3815 23.2004 39.9241 23.2995 39.633 23.5711C37.2058 25.8446 34.794 28.1332 32.4106 30.4498C29.2984 33.4775 26.23 36.5462 23.1156 39.5697C22.7195 39.9554 22.157 40.1774 21.6733 40.4726V40.4748Z" fill="#02EBE8"/>
<path d="M21.6584 40.5629C22.1574 40.1771 22.7199 39.9552 23.116 39.5716C26.2304 36.5481 29.301 33.4794 32.411 30.4517C34.7944 28.1329 37.2063 25.8465 39.6334 23.573C39.9223 23.3014 40.3797 23.2023 40.8415 23.0234C41.6754 24.2927 41.6929 25.6288 41.1501 27.064C40.6752 27.3183 40.2834 27.4541 40.0142 27.7127C35.7005 31.8632 31.4043 36.0331 27.1015 40.1922C25.8036 41.4464 24.4927 42.6834 23.1883 43.929C22.1662 43.067 21.7569 41.927 21.6562 40.5629H21.6584Z" fill="#0BE9EC"/>
<path d="M43.9817 45.4826C42.3709 45.4568 41.1869 44.6723 40.2896 43.3449C43.5418 40.1706 46.7591 37.1148 49.9544 34.0353C52.1912 31.8782 54.371 29.6607 56.6318 27.5294C57.3387 26.8635 58.2251 26.383 59.0305 25.8184C58.7854 26.5898 58.6738 27.4368 58.2711 28.1177C56.4633 31.1735 54.5745 34.1819 52.5676 37.2398C52.0795 37.5264 51.7075 37.7527 51.3989 38.0414C49.5364 39.7848 47.6695 41.5217 45.8486 43.3039C45.1658 43.972 44.5989 44.7521 43.9795 45.4826H43.9817Z" fill="#2EDDF4"/>
<path d="M59.0547 25.73C58.2274 26.3851 57.3388 26.8635 56.6319 27.5294C54.3711 29.6629 52.1912 31.8782 49.9545 34.0353C46.7591 37.1148 43.5419 40.1706 40.2633 43.2738C39.8497 42.2803 39.5061 41.2524 39.2544 40.1167C39.6834 39.7439 40.0445 39.4982 40.3531 39.2051C41.3773 38.2354 42.3819 37.2463 43.3996 36.27C46.3936 33.3975 49.381 30.5184 52.3882 27.6587C54.266 25.8722 56.1701 24.1159 58.0632 22.3467C58.4025 23.4436 58.7395 24.5426 59.0547 25.73Z" fill="#28DFF3"/>
<path d="M58.0395 22.2778C56.1704 24.1182 54.2641 25.8745 52.3885 27.661C49.3814 30.5206 46.3939 33.3997 43.3999 36.2723C42.3822 37.2485 41.3798 38.2398 40.3534 39.2074C40.0426 39.5005 39.6837 39.7461 39.2744 40.0284C39.4386 39.2009 39.5239 38.2743 39.9397 37.5265C41.0844 35.4728 42.3691 33.4924 43.737 31.4344C44.3257 31.1025 44.8422 30.887 45.2165 30.5271C47.2387 28.5833 49.2347 26.6136 51.2176 24.6311C52.6358 23.2131 54.019 21.7606 55.4175 20.3232C56.2842 20.9503 57.1509 21.5796 58.0395 22.2778Z" fill="#20E1F0"/>
<path d="M45.6495 60.5289C45.5028 60.8867 45.2949 61.2702 44.9973 61.5676C42.8459 63.7118 40.6704 65.8345 38.5146 67.9722C38.2104 68.2739 37.9631 68.6274 37.672 69.0282C35.943 68.4076 34.2293 67.718 32.4653 66.9012C32.8549 66.2267 33.2467 65.6298 33.75 65.1406C35.293 63.6386 36.8929 62.1904 38.4358 60.6905C38.6963 60.4384 38.7948 60.0268 38.9677 59.6885C41.1081 60.3824 43.3033 60.6388 45.6516 60.5289H45.6495Z" fill="#4ED1FC"/>
<path d="M23.2188 43.9978C24.4947 42.6854 25.8057 41.4463 27.1035 40.1921C31.4085 36.0329 35.7047 31.863 40.0163 27.7125C40.2855 27.4539 40.6772 27.3182 41.0931 27.1221C40.756 27.9022 40.3752 28.706 39.9178 29.4667C38.679 31.5247 37.4074 33.5633 36.0264 35.6774C35.1269 36.3971 34.3171 37.0178 33.5774 37.7117C31.2969 39.8537 29.0295 42.0109 26.7905 44.1939C26.4557 44.5193 26.2937 45.0171 26.053 45.4351C25.1185 44.9783 24.1839 44.5236 23.2188 43.9978Z" fill="#12E6ED"/>
<path d="M38.8998 59.6498C38.7925 60.027 38.6941 60.4386 38.4336 60.6907C36.8885 62.1927 35.2908 63.6387 33.7478 65.1407C33.2466 65.6278 32.8549 66.2247 32.4062 66.8475C31.023 65.9424 29.6442 64.9662 28.2632 63.8585C29.3969 62.6022 30.5306 61.473 31.6665 60.3459C32.7236 59.2943 33.7828 58.2448 34.8421 57.1953C36.1728 57.9991 37.5013 58.8051 38.8998 59.6477V59.6498Z" fill="#42D5F8"/>
<path d="M34.8031 57.139C33.7854 58.2466 32.7261 59.2961 31.669 60.3456C30.5331 61.4726 29.3994 62.6019 28.2263 63.8022C27.2612 62.9488 26.3332 62.0243 25.4556 60.9899C25.8233 60.5891 26.1472 60.3046 26.4579 60.0072C28.3183 58.2294 30.1742 56.4472 32.0323 54.665C32.9428 55.471 33.8532 56.2748 34.8053 57.1368L34.8031 57.139Z" fill="#38D9F6"/>
<path d="M64.3861 35.4297C65.2528 36.1796 66.1173 36.9296 66.9599 37.8174C66.2551 38.6535 65.5898 39.3668 64.8916 40.0457C63.1867 41.7072 61.4687 43.3536 59.755 45.0064C58.9496 44.2091 58.142 43.4096 57.3804 42.4808C59.1641 40.6706 60.9106 38.9983 62.6374 37.3067C63.248 36.7076 63.8061 36.0568 64.3883 35.4297H64.3861Z" fill="#4CD2FB"/>
<path d="M55.3471 20.2818C54.0186 21.7602 52.6354 23.2126 51.2172 24.6306C49.2343 26.6132 47.2361 28.5807 45.2161 30.5266C44.8418 30.8865 44.3275 31.1042 43.7979 31.3929C45.5728 28.3393 47.3237 25.2124 49.3175 22.2429C50.6963 20.1892 52.8477 19.631 55.3493 20.2818H55.3471Z" fill="#19E2ED"/>
<path d="M59.8054 45.0669C61.4666 43.3537 63.1868 41.7073 64.8895 40.0458C65.5877 39.3648 66.253 38.6537 66.9709 37.8887C68.1177 40.2204 67.8135 42.4077 66.1502 44.0713C64.6991 45.5238 62.1253 46.2651 59.8032 45.0648L59.8054 45.0669Z" fill="#54CEFC"/>
<path d="M64.325 35.3801C63.8041 36.0567 63.246 36.7076 62.6354 37.3066C60.9086 38.9983 59.1621 40.6706 57.374 42.4053C56.4241 40.5391 56.7415 38.2505 58.2144 36.7269C59.904 34.9814 61.9438 34.5289 64.325 35.3801Z" fill="#42D5F8"/>
<path d="M31.984 54.6051C30.1718 56.4497 28.3159 58.2319 26.4556 60.0098C26.1448 60.3072 25.8209 60.5916 25.4379 60.9192C24.232 59.1176 24.4684 56.7967 25.9544 55.2343C27.4711 53.6396 29.7998 53.3681 31.9862 54.6051H31.984Z" fill="#2EDDF4"/>
<path d="M26.1294 45.4737C26.2935 45.0147 26.4555 44.5169 26.7904 44.1915C29.0293 42.0085 31.2967 39.8514 33.5772 37.7093C34.3169 37.0154 35.1267 36.3948 35.9803 35.7354C34.5533 38.2071 33.1088 40.7177 31.5309 43.1464C30.3118 45.0233 28.469 45.7884 26.1294 45.4716V45.4737Z" fill="#19E2ED"/>
<path d="M44.0564 45.5257C44.6013 44.7542 45.1682 43.9741 45.851 43.3061C47.6741 41.5239 49.541 39.787 51.4013 38.0436C51.7099 37.7548 52.0798 37.5307 52.4978 37.2656C51.281 39.4141 50.0947 41.6467 48.6546 43.7069C47.626 45.1809 45.9452 45.6701 44.0542 45.5235L44.0564 45.5257Z" fill="#38D9F6"/>
</g>
<defs>
<clipPath id="clip0_5626_12369">
<rect width="46" height="50" fill="white" transform="translate(21.6582 20)"/>
</clipPath>
</defs>
</svg>
